!!!!SEGMENT: Wil1001b-Missa_Mente_tota-Gloria.krn
!!!id: Wil1001b
!!!AGN: Mass; Gloria
!!!SCT: CRIM
!!!voices: 6
!!!COM: Adrian Willaert
!!!OPR: Missa Mente tota
!!!OTL: Gloria
**kern	**text	**kern	**text	**kern	**text	**kern	**text	**kern	**text	**kern	**text
*part6	*part6	*part5	*part5	*part4	*part4	*part3	*part3	*part2	*part2	*part1	*part1
*staff6	*staff6	*staff5	*staff5	*staff4	*staff4	*staff3	*staff3	*staff2	*staff2	*staff1	*staff1
*I"Bassus	*	*I"Tenor II	*	*I"Tenor I	*	*I"Altus II	*	*I"Altus I	*	*I"Superius	*
*I'B	*	*I'T. II	*	*I'T. I	*	*I'A. II	*	*I'A. I	*	*I'S	*
*clefF4	*	*clefF4	*	*clefGv2	*	*clefG2	*	*clefG2	*	*clefG2	*
*k[b-]	*	*k[b-]	*	*k[b-]	*	*k[b-]	*	*k[b-]	*	*k[b-]	*
*F:	*	*F:	*	*F:	*	*F:	*	*F:	*	*F:	*
*M2/1	*	*M2/1	*	*M2/1	*	*M2/1	*	*M2/1	*	*M2/1	*
*met(C|)	*	*met(C|)	*	*met(C|)	*	*met(C|)	*	*met(C|)	*	*met(C|)	*
!!section: Et in terra pax
!!!OMD: Et in terra pax
=1	=1	=1	=1	=1	=1	=1	=1	=1	=1	=1	=1
!LO:TX:a:t=Canon&colon; bassus/tenor I at the fifth	!	!	!	!	!	!	!	!LO:TX:a:t=Canon&colon; altus I/superius at the fifth	!	!	!
1.G	Et	1r	.	0r	.	1G	Et	0r	.	0r	.
.	.	1G	Et	.	.	2.B-y	in	.	.	.	.
2G	in	.	.	.	.	.	.	.	.	.	.
.	.	.	.	.	.	4c	.	.	.	.	.
=2	=2	=2	=2	=2	=2	=2	=2	=2	=2	=2	=2
1G	ter-	1B-y	in	0r	.	2d	.	0r	.	0r	.
.	.	.	.	.	.	2e	.	.	.	.	.
1F	-ra	2c	ter-	.	.	4f	ter-	.	.	.	.
.	.	.	.	.	.	4e	.	.	.	.	.
.	.	[2d	.	.	.	4d	.	.	.	.	.
.	.	.	.	.	.	4c	.	.	.	.	.
=3	=3	=3	=3	=3	=3	=3	=3	=3	=3	=3	=3
1.G	pax	4d]	.	1.d	Et	2B-y	-ra	0r	.	0r	.
.	.	4c	.	.	.	.	.	.	.	.	.
.	.	4B-y	.	.	.	1b-y	pax	.	.	.	.
.	.	4A	.	.	.	.	.	.	.	.	.
.	.	2G	.	.	.	.	.	.	.	.	.
2F	ho-	2A	-ra	2d	in	2a	ho-	.	.	.	.
=4	=4	=4	=4	=4	=4	=4	=4	=4	=4	=4	=4
1G	-mi-	1B-y	pax	1d	ter-	2.g	-mi-	0r	.	0r	.
.	.	.	.	.	.	4f	.	.	.	.	.
1A	.	2r	.	1c	-ra	1e	.	.	.	.	.
.	.	2c	ho-	.	.	.	.	.	.	.	.
=5	=5	=5	=5	=5	=5	=5	=5	=5	=5	=5	=5
1.B-y	.	2.G	-mi-	1.d	pax	2d	.	0r	.	0r	.
.	.	.	.	.	.	2.g	.	.	.	.	.
.	.	4A	.	.	.	.	.	.	.	.	.
.	.	2B-y	.	.	.	.	.	.	.	.	.
.	.	.	.	.	.	4f	.	.	.	.	.
2A	.	2c	.	2c	ho-	[2f	.	.	.	.	.
=6	=6	=6	=6	=6	=6	=6	=6	=6	=6	=6	=6
2G	.	2B-y	.	1d	-mi-	4f]	.	0r	.	0r	.
.	.	.	.	.	.	4e	.	.	.	.	.
2F	.	1A	.	.	.	1d	.	.	.	.	.
1E	-ni-	.	.	1e	.	.	.	.	.	.	.
.	.	2G	.	.	.	2c#i	.	.	.	.	.
=7	=7	=7	=7	=7	=7	=7	=7	=7	=7	=7	=7
1D	-bus	1A	-ni-	1.f	.	1.d	.	0r	.	0r	.
2r	.	1B-y	-bus	.	.	.	.	.	.	.	.
2G	bo-	.	.	2e	.	2e	.	.	.	.	.
=8	=8	=8	=8	=8	=8	=8	=8	=8	=8	=8	=8
2F	-nae	1r	.	2d	.	2f	.	0r	.	0r	.
2E	vo-	.	.	2c	.	2g	.	.	.	.	.
1G	-lun-	2r	.	1B-y	-ni-	2.d	.	.	.	.	.
.	.	[2d	bo-	.	.	.	.	.	.	.	.
.	.	.	.	.	.	4e	-ni-	.	.	.	.
=9	=9	=9	=9	=9	=9	=9	=9	=9	=9	=9	=9
1F	-ta-	2d]	.	1A	-bus	[0f	-bus	0r	.	0r	.
.	.	2c	.	.	.	.	.	.	.	.	.
2D	.	2B-y	.	2r	.	.	.	.	.	.	.
[2F	.	[2A	.	2d	bo-	.	.	.	.	.	.
=10	=10	=10	=10	=10	=10	=10	=10	=10	=10	=10	=10
4F]	.	4A]	.	2c	-nae	0f]	.	0r	.	0r	.
4E	.	4G	.	.	.	.	.	.	.	.	.
4D	.	4F	.	2B-y	vo-	.	.	.	.	.	.
4C	.	4E	.	.	.	.	.	.	.	.	.
4BB-y	.	4D	.	1d	-lun-	.	.	.	.	.	.
4C	.	4E	.	.	.	.	.	.	.	.	.
4D	.	4F	.	.	.	.	.	.	.	.	.
4E	.	4G	.	.	.	.	.	.	.	.	.
=11	=11	=11	=11	=11	=11	=11	=11	=11	=11	=11	=11
4F	.	4A	.	1c	-ta-	0r	.	0r	.	0r	.
4G	.	4B-y	.	.	.	.	.	.	.	.	.
1F	.	1A	.	.	.	.	.	.	.	.	.
.	.	.	.	2A	.	.	.	.	.	.	.
2E	.	2G	-nae	[2c	.	.	.	.	.	.	.
=12	=12	=12	=12	=12	=12	=12	=12	=12	=12	=12	=12
1F	.	1A	vo-	4c]	.	0r	.	0r	.	0r	.
.	.	.	.	4B-y	.	.	.	.	.	.	.
.	.	.	.	4A	.	.	.	.	.	.	.
.	.	.	.	4G	.	.	.	.	.	.	.
2.A	.	2.c	-lun-	4F	.	.	.	.	.	.	.
.	.	.	.	4G	.	.	.	.	.	.	.
.	.	.	.	4A	.	.	.	.	.	.	.
4G	.	4B-y	.	4B-y	.	.	.	.	.	.	.
=13	=13	=13	=13	=13	=13	=13	=13	=13	=13	=13	=13
2F	.	2A	-ta-	4c	.	1r	.	0r	.	0r	.
.	.	.	.	4d	.	.	.	.	.	.	.
2E	.	2G	.	1c	.	.	.	.	.	.	.
1D	.	1F	.	.	.	1d	bo-	.	.	.	.
.	.	.	.	2Bni	.	.	.	.	.	.	.
=14	=14	=14	=14	=14	=14	=14	=14	=14	=14	=14	=14
1C	-tis.	1G	-tis.	1c	.	1e	-nae	1.g	Lau-	0r	.
1r	.	1C	.	2.e	.	2.g	vo-	.	.	.	.
.	.	.	.	.	.	.	.	2g	-da-	.	.
.	.	.	.	4d	.	4f	-lun-	.	.	.	.
=15	=15	=15	=15	=15	=15	=15	=15	=15	=15	=15	=15
0r	.	2r	.	2c	.	2e	-ta-	1g	-mus	0r	.
.	.	2G	Lau-	2B-y	.	1d	.	.	.	.	.
.	.	2A	-da-	1A	.	.	.	1f	te.	.	.
.	.	2c	-mus	.	.	2c	.	.	.	.	.
=16	=16	=16	=16	=16	=16	=16	=16	=16	=16	=16	=16
0r	.	1.B-y	te.	1G	-tis.	0d	-tis.	1.g	Be-	1.dd	Lau-
.	.	.	.	1r	.	.	.	.	.	.	.
.	.	2B-y	Be-	.	.	.	.	2f	-ne-	2dd	-da-
=17	=17	=17	=17	=17	=17	=17	=17	=17	=17	=17	=17
0r	.	1B-y	-ne-	0r	.	1G	.	1g	-di-	1dd	-mus
.	.	1A	-di-	.	.	2r	.	1a	-ci-	1cc	te.
.	.	.	.	.	.	2c	Lau-	.	.	.	.
=18	=18	=18	=18	=18	=18	=18	=18	=18	=18	=18	=18
0r	.	2.G	-ci-	0r	.	2B-y	-da-	1.b-y	.	1.dd	Be-
.	.	.	.	.	.	2.d	.	.	.	.	.
.	.	4F	.	.	.	.	.	.	.	.	.
.	.	2G	.	.	.	.	.	.	.	.	.
.	.	.	.	.	.	4e	.	.	.	.	.
.	.	2A	.	.	.	2f	.	2a	.	2cc	-ne-
=19	=19	=19	=19	=19	=19	=19	=19	=19	=19	=19	=19
0r	.	1B-y	.	0r	.	2d	.	2g	.	1dd	-di-
.	.	.	.	.	.	2.b-y	.	2f	.	.	.
.	.	1c	.	.	.	.	.	1e	-mus	1ee	-ci-
.	.	.	.	.	.	4a	.	.	.	.	.
.	.	.	.	.	.	4a	.	.	.	.	.
.	.	.	.	.	.	4g	.	.	.	.	.
=20	=20	=20	=20	=20	=20	=20	=20	=20	=20	=20	=20
0r	.	2.B-y	.	0r	.	1.b-y	.	1d	te.	1.ff	.
.	.	4A	.	.	.	.	.	.	.	.	.
.	.	2B-y	.	.	.	.	.	2r	.	.	.
.	.	2c	.	.	.	2g	-mus	2g	A-	2ee	.
=21	=21	=21	=21	=21	=21	=21	=21	=21	=21	=21	=21
0r	.	2F	.	0r	.	1a	te.	2f	-do-	2dd	.
.	.	2A	-mus	.	.	.	.	2e	-ra-	2cc	.
.	.	1G	te.	.	.	1d	Be-	1g	.	1b-y	-mus
=22	=22	=22	=22	=22	=22	=22	=22	=22	=22	=22	=22
0r	.	0r	.	0r	.	2.d	-ne-	1f	.	1a	te.
.	.	.	.	.	.	4e	.	.	.	.	.
.	.	.	.	.	.	4f	.	2d	.	2r	.
.	.	.	.	.	.	4g	.	.	.	.	.
.	.	.	.	.	.	[2a	-di-	[2f	.	2dd	A
=23	=23	=23	=23	=23	=23	=23	=23	=23	=23	=23	=23
0r	.	0r	.	0r	.	2a]	.	4f]	.	2cc	do-
.	.	.	.	.	.	.	.	4e	.	.	.
.	.	.	.	.	.	2f	-ci-	4d	.	2b-y	-ra
.	.	.	.	.	.	.	.	4c	.	.	.
.	.	.	.	.	.	1b-y	-mus	4B-y	.	1dd	mus
.	.	.	.	.	.	.	.	4c	.	.	.
.	.	.	.	.	.	.	.	4d	.	.	.
.	.	.	.	.	.	.	.	4e	.	.	.
=24	=24	=24	=24	=24	=24	=24	=24	=24	=24	=24	=24
0r	.	0r	.	0r	.	1a	te.	4f	.	1cc	te.
.	.	.	.	.	.	.	.	4g	.	.	.
.	.	.	.	.	.	.	.	1f	.	.	.
.	.	.	.	.	.	2r	.	.	.	2a	Glo-
.	.	.	.	.	.	2g	A-	2e	-mus	[2cc	-ri-
=25	=25	=25	=25	=25	=25	=25	=25	=25	=25	=25	=25
0r	.	0r	.	0r	.	1a	-do-	1f	te.	4cc]	.
.	.	.	.	.	.	.	.	.	.	4b-y	.
.	.	.	.	.	.	.	.	.	.	4a	.
.	.	.	.	.	.	.	.	.	.	4g	.
.	.	.	.	.	.	2.cc	-ra-	2.a	Glo-	4f	.
.	.	.	.	.	.	.	.	.	.	4g	.
.	.	.	.	.	.	.	.	.	.	4a	.
.	.	.	.	.	.	4b-y	.	4g	-ri-	4b-y	.
=26	=26	=26	=26	=26	=26	=26	=26	=26	=26	=26	=26
1r	.	0r	.	0r	.	2a	.	2f	-fi-	4cc	.
.	.	.	.	.	.	.	.	.	.	4dd	.
.	.	.	.	.	.	2g	.	2e	-ca-	1cc	-fi-
2r	.	.	.	.	.	2f	.	1d	-mus	.	.
2G	A-	.	.	.	.	2g	-mus	.	.	2bni	-ca-
=27	=27	=27	=27	=27	=27	=27	=27	=27	=27	=27	=27
1A	-do-	0r	.	0r	.	1e	te.	1c	te.	1cc	.
2.c	-ra-	.	.	.	.	2r	.	1r	.	2.ee	.
.	.	.	.	.	.	[2c	[Glo-	.	.	.	.
4B-y	.	.	.	.	.	.	.	.	.	4dd	.
=28	=28	=28	=28	=28	=28	=28	=28	=28	=28	=28	=28
2A	.	0r	.	1r	.	4c]	.	0r	.	2cc	.
.	.	.	.	.	.	4d	-ri-	.	.	.	.
2G	-mus	.	.	.	.	2e	-fi-	.	.	2b-y	.
1F	te,	.	.	2r	.	1f	-ca-	.	.	1a	-mus
.	.	.	.	2d	A-	.	.	.	.	.	.
=29	=29	=29	=29	=29	=29	=29	=29	=29	=29	=29	=29
1c	[a-	0r	.	1e	-do-	2e	.	0r	.	1g	te.
.	.	.	.	.	.	2c	.	.	.	.	.
2B-y	-do-	.	.	2.g	-ra-	2d	.	.	.	1r	.
[2c	-ra-	.	.	.	.	[2e	.	.	.	.	.
.	.	.	.	4f	.	.	.	.	.	.	.
=30	=30	=30	=30	=30	=30	=30	=30	=30	=30	=30	=30
2c]	.	0r	.	2e	.	4e]	.	0r	.	0r	.
.	.	.	.	.	.	4f	.	.	.	.	.
2B-y	.	.	.	2d	.	1g	.	.	.	.	.
1A	-mus	.	.	1c	.	.	.	.	.	.	.
.	.	.	.	.	.	2f	.	.	.	.	.
=31	=31	=31	=31	=31	=31	=31	=31	=31	=31	=31	=31
1G	te].	1C	Glo-	1g	.	2.e	.	0r	.	0r	.
.	.	.	.	.	.	4d	.	.	.	.	.
2r	.	2D	-ri-	2f	.	2f	.	.	.	.	.
2G	Glo-	2C	-fi-	[2g	.	2e	.	.	.	.	.
=32	=32	=32	=32	=32	=32	=32	=32	=32	=32	=32	=32
2B-y	-ri-	2BB-y	-ca-	2g]	.	1d	-mus	0r	.	0r	.
2A	-fi-	2D	-mus	2f	.	.	.	.	.	.	.
2c	-ca-	1C	te.	1e	-mus	1G	te].	.	.	.	.
2c	-mus	.	.	.	.	.	.	.	.	.	.
=33	=33	=33	=33	=33	=33	=33	=33	=33	=33	=33	=33
4B-y	te.	2.G	Gra-	1d	te.	0r	.	0r	.	0r	.
4A	.	.	.	.	.	.	.	.	.	.	.
4G	.	.	.	.	.	.	.	.	.	.	.
4F	.	4A	.	.	.	.	.	.	.	.	.
2G	.	4B-y	.	2r	.	.	.	.	.	.	.
.	.	4c	.	.	.	.	.	.	.	.	.
2B-y	.	[2d	.	2d	Glo-	.	.	.	.	.	.
=34	=34	=34	=34	=34	=34	=34	=34	=34	=34	=34	=34
1A	.	2d]	.	2f	-ri-	0r	.	0r	.	0r	.
.	.	2c	-ti-	2e	-fi-	.	.	.	.	.	.
2.G	Gra-	2.B-y	-as	2g	-ca-	.	.	.	.	.	.
.	.	.	.	2g	-mus	.	.	.	.	.	.
4F	.	8AL	.	.	.	.	.	.	.	.	.
.	.	8GJ	.	.	.	.	.	.	.	.	.
=35	=35	=35	=35	=35	=35	=35	=35	=35	=35	=35	=35
2D	.	2A	.	4f	.	0r	.	0r	.	0r	.
.	.	.	.	4e	.	.	.	.	.	.	.
1G	-ti-	2.B-y	a-	4d	.	.	.	.	.	.	.
.	.	.	.	4c	.	.	.	.	.	.	.
.	.	.	.	2d	.	.	.	.	.	.	.
.	.	4A	.	.	.	.	.	.	.	.	.
2F	-as	[2d	-gi-	2f	.	.	.	.	.	.	.
=36	=36	=36	=36	=36	=36	=36	=36	=36	=36	=36	=36
2.G	a-	2d]	.	1e	.	0r	.	0r	.	0r	.
.	.	2c	.	.	.	.	.	.	.	.	.
4A	.	.	.	.	.	.	.	.	.	.	.
2B-y	.	2d	-mus	2.d	te.	.	.	.	.	.	.
[2F	-gi-	[2D	ti-	.	.	.	.	.	.	.	.
.	.	.	.	4c	.	.	.	.	.	.	.
=37	=37	=37	=37	=37	=37	=37	=37	=37	=37	=37	=37
2F]	.	2D]	.	2A	.	0r	.	0r	.	0r	.
2G	.	4C	.	1d	Gra-	.	.	.	.	.	.
.	.	4BB-y	.	.	.	.	.	.	.	.	.
1A	.	1F	.	.	.	.	.	.	.	.	.
.	.	.	.	2c	-ti-	.	.	.	.	.	.
=38	=38	=38	=38	=38	=38	=38	=38	=38	=38	=38	=38
2B-y	.	1BB-y	-bi,	2.d	-as	2r	.	0r	.	0r	.
2G	-mus	.	.	.	.	2b-y	Gra-	.	.	.	.
.	.	.	.	4e	.	.	.	.	.	.	.
[1A	ti-	2r	.	2f	.	2a	-ti-	.	.	.	.
.	.	[2F	[ti-	[2c	a-	2f	-as	.	.	.	.
=39	=39	=39	=39	=39	=39	=39	=39	=39	=39	=39	=39
2A]	.	2F]	.	2c]	.	2a	a-	1r	.	0r	.
4G	.	4E	.	2d	.	2b-y	-gi-	.	.	.	.
4F	.	4D	.	.	.	.	.	.	.	.	.
1G	.	1C	-bi]	1e	-gi-	2.cc	-mus	2r	.	.	.
.	.	.	.	.	.	.	.	2g	Gra-	.	.
.	.	.	.	.	.	4b-y	.	.	.	.	.
=40	=40	=40	=40	=40	=40	=40	=40	=40	=40	=40	=40
2.F	.	0r	.	2f	.	2a	.	1a	-ti-	0r	.
.	.	.	.	2d	.	2f	.	.	.	.	.
4E	.	.	.	.	.	.	.	.	.	.	.
[1C	-bi.	.	.	[1e	.	4g	ti-	2.cc	-as	.	.
.	.	.	.	.	.	4f	.	.	.	.	.
.	.	.	.	.	.	4e	.	.	.	.	.
.	.	.	.	.	.	4d	.	4b-y	a-	.	.
=41	=41	=41	=41	=41	=41	=41	=41	=41	=41	=41	=41
1C]	.	0r	.	2e]	.	1c	-bi	2a	-gi-	1r	.
.	.	.	.	4d	.	.	.	2g	.	.	.
.	.	.	.	4c	.	.	.	.	.	.	.
1r	.	.	.	1d	-mus	1r	.	1f	-mus	2r	.
.	.	.	.	.	.	.	.	.	.	2dd	Gra-
=42	=42	=42	=42	=42	=42	=42	=42	=42	=42	=42	=42
0r	.	1r	.	2.c	ti-	1.g	pro-	1cc	ti-	1ee	-ti-
.	.	.	.	4B-y	.	.	.	.	.	.	.
.	.	2r	.	[1G	-bi.	.	.	2b-y	.	2.gg	-as
.	.	2C	pro-	.	.	2g	-petr	[2cc	.	.	.
.	.	.	.	.	.	.	.	.	.	4ff	.
=43	=43	=43	=43	=43	=43	=43	=43	=43	=43	=43	=43
0r	.	1G	-pter	1G]	.	1g	ma-	2cc]	.	2ee	.
.	.	.	.	.	.	.	.	2b-y	.	2dd	.
.	.	2A	ma-	1r	.	[1e	.	1a	.	1cc	.
.	.	[2c	.	.	.	.	.	.	.	.	.
=44	=44	=44	=44	=44	=44	=44	=44	=44	=44	=44	=44
0r	.	2c]	.	0r	.	2e]	.	1g	-bi	1gg	a-
.	.	2B-y	.	.	.	2d	.	.	.	.	.
.	.	2A	.	.	.	2c	-gnam	2r	.	2ff	.
.	.	2G	.	.	.	[2d	glo-	2g	pro-	[2gg	-gi-
=45	=45	=45	=45	=45	=45	=45	=45	=45	=45	=45	=45
0r	.	1d	-gnam	0r	.	4d]	.	2b-y	-pter	2gg]	.
.	.	.	.	.	.	4e	.	.	.	.	.
.	.	.	.	.	.	4f	.	2a	ma-	2ff	-mus
.	.	.	.	.	.	4g	.	.	.	.	.
.	.	2.c	.	.	.	2a	.	2cc	-gnam	1ee	ti-
.	.	.	.	.	.	[2g	-ri-	2cc	glo-	.	.
.	.	4B-y	.	.	.	.	.	.	.	.	.
=46	=46	=46	=46	=46	=46	=46	=46	=46	=46	=46	=46
0r	.	1.G	glo-	0r	.	4g]	.	4b-y	-ri-	1dd	-bi
.	.	.	.	.	.	4f	.	4a	.	.	.
.	.	.	.	.	.	2d	.	4g	.	.	.
.	.	.	.	.	.	.	.	4f	.	.	.
.	.	.	.	.	.	2e	-am	2g	.	2r	.
.	.	2G	-ri-	.	.	2d	.	2b-y	-am	2dd	pro-
=47	=47	=47	=47	=47	=47	=47	=47	=47	=47	=47	=47
0r	.	2A	-am	0r	.	2.c	tu-	1a	tu-	2ff	-pter
.	.	2.c	tu-	.	.	.	.	.	.	2ee	.
.	.	.	.	.	.	4d	.	.	.	.	.
.	.	.	.	.	.	2e	.	2.g	-am.	2gg	ma-
.	.	4B-y	.	.	.	.	.	.	.	.	.
.	.	4G	.	.	.	2d	.	.	.	2gg	-gnam
.	.	4A	.	.	.	.	.	4f	.	.	.
=48	=48	=48	=48	=48	=48	=48	=48	=48	=48	=48	=48
2r	.	1B-y	-am.	0r	.	1d	-am.	2d	.	4ff	glo-
.	.	.	.	.	.	.	.	.	.	4ee	.
2G	Do-	.	.	.	.	.	.	1g	Do-	4dd	.
.	.	.	.	.	.	.	.	.	.	4cc	.
2B-y	-mi-	2r	.	.	.	1r	.	.	.	2dd	.
2A	-ne	2D	Do-	.	.	.	.	2f	-mi-	2ff	-ri-
=49	=49	=49	=49	=49	=49	=49	=49	=49	=49	=49	=49
2c	De-	4C	-mi-	0r	.	0r	.	2.g	-ne	1ee	-am
.	.	4D	.	.	.	.	.	.	.	.	.
2c	-us,	4E	.	.	.	.	.	.	.	.	.
.	.	4F	.	.	.	.	.	4a	.	.	.
2.B-y	Rex	2G	.	.	.	.	.	2b-y	.	2.dd	.
.	.	2D	-ne	.	.	.	.	[2f	De-	.	.
8AL	.	.	.	.	.	.	.	.	.	4cc	.
8GJ	.	.	.	.	.	.	.	.	.	.	.
=50	=50	=50	=50	=50	=50	=50	=50	=50	=50	=50	=50
2F	.	2F	De-	2r	.	0r	.	2f]	.	2a	.
2B-y	.	2G	.	2d	Do-	.	.	2g	.	1dd	tu-
1A	cae-	1A	.	2f	-mi-	.	.	1a	-us,	.	.
.	.	.	.	2e	-ne	.	.	.	.	2cc	.
=51	=51	=51	=51	=51	=51	=51	=51	=51	=51	=51	=51
2.G	-le-	1G	-us,	2g	De-	1r	.	2b-y	Rex	2.dd	-am.
.	.	.	.	2g	-us,	.	.	2g	.	.	.
8FL	.	.	.	.	.	.	.	.	.	4ee	.
8EJ	.	.	.	.	.	.	.	.	.	.	.
4D	.	1r	.	2.f	Rex	2r	.	[1a	cae-	2ff	.
4C	.	.	.	.	.	.	.	.	.	.	.
[2F	.	.	.	.	.	2cc	Do-	.	.	[2cc	Do-
.	.	.	.	8eL	.	.	.	.	.	.	.
.	.	.	.	8dJ	.	.	.	.	.	.	.
=52	=52	=52	=52	=52	=52	=52	=52	=52	=52	=52	=52
4F]	.	0r	.	2c	.	2a	-mi-	2a]	.	2cc]	.
4E	.	.	.	.	.	.	.	.	.	.	.
2D	.	.	.	2f	.	2b-y	-ne	4g	.	2dd	-mi-
.	.	.	.	.	.	.	.	4f	.	.	.
1C	-sti[s].	.	.	1e	cae-	1cc	De-	1g	-le-	1ee	-ne
=53	=53	=53	=53	=53	=53	=53	=53	=53	=53	=53	=53
1r	.	0r	.	2.d	-le-	2a	-us,	2.f	-stis.	2ff	De-
.	.	.	.	.	.	1a	Rex	.	.	2dd	-us,
.	.	.	.	8cL	.	.	.	4e	.	.	.
.	.	.	.	8B-yJ	.	.	.	.	.	.	.
1c	De-	.	.	4A	.	.	.	[1c	.	[1ee	Rex
.	.	.	.	4G	.	.	.	.	.	.	.
.	.	.	.	[2c	.	2g	cae-	.	.	.	.
=54	=54	=54	=54	=54	=54	=54	=54	=54	=54	=54	=54
2A	-us	0r	.	4c]	.	1a	-le-	1c]	.	2ee]	.
.	.	.	.	4B-y	.	.	.	.	.	.	.
2c	Pa-	.	.	2A	.	.	.	.	.	4dd	.
.	.	.	.	.	.	.	.	.	.	4cc	.
4B-y	-ter	.	.	1G	-stis,	2d	.	1r	.	1dd	.
4A	.	.	.	.	.	.	.	.	.	.	.
4G	.	.	.	.	.	[2g	.	.	.	.	.
4F	.	.	.	.	.	.	.	.	.	.	.
=55	=55	=55	=55	=55	=55	=55	=55	=55	=55	=55	=55
4E	.	1C	De-	1r	.	2g]	.	0r	.	2.cc	cae-
4C	.	.	.	.	.	.	.	.	.	.	.
1c	o-	.	.	.	.	4f	.	.	.	.	.
.	.	.	.	.	.	4e	.	.	.	4b-y	.
.	.	1G	.	1g	De-	1d	-stis,	.	.	1g	-le-
2B-y	-mni-	.	.	.	.	.	.	.	.	.	.
=56	=56	=56	=56	=56	=56	=56	=56	=56	=56	=56	=56
2.c	-po-	1C	-us	2e	-us	2r	.	0r	.	1g	-stis.
.	.	.	.	2g	Pa-	2e	De-	.	.	.	.
4B-y	.	.	.	.	.	.	.	.	.	.	.
4A	.	1D	Pa-	4f	-ter	4d	-us	.	.	1r	.
4G	.	.	.	4e	.	4c	.	.	.	.	.
[2B-y	.	.	.	4d	.	4B-y	.	.	.	.	.
.	.	.	.	4c	.	4A	.	.	.	.	.
=57	=57	=57	=57	=57	=57	=57	=57	=57	=57	=57	=57
2B-]	.	1E-X	.	4B-y	.	2G	.	0r	.	0r	.
.	.	.	.	4G	.	.	.	.	.	.	.
4A	.	.	.	1g	o-	2c	Pa-	.	.	.	.
4G	.	.	.	.	.	.	.	.	.	.	.
1A	-tens,	1D	.	.	.	4d	-ter	.	.	.	.
.	.	.	.	.	.	4e	.	.	.	.	.
.	.	.	.	2f	-mni-	4f	.	.	.	.	.
.	.	.	.	.	.	4d	.	.	.	.	.
=58	=58	=58	=58	=58	=58	=58	=58	=58	=58	=58	=58
2r	.	1G	.	2.g	-po-	2e	.	0r	.	0r	.
2B-y	[De-	.	.	.	.	2d	o-	.	.	.	.
.	.	.	.	4f	.	.	.	.	.	.	.
2c	-us	2A	.	4e	.	2c	-mni-	.	.	.	.
.	.	.	.	4d	.	.	.	.	.	.	.
[2A	Pa-	2F	.	[2f	.	[2c	-po-	.	.	.	.
=59	=59	=59	=59	=59	=59	=59	=59	=59	=59	=59	=59
2A]	.	1F	-ter	2f]	.	2c]	.	0r	.	0r	.
4G	.	.	.	4e	.	4B-y	.	.	.	.	.
4F	.	.	.	4d	.	4A	.	.	.	.	.
1G	.	2r	.	1e	-tens,	2B-y	.	.	.	.	.
.	.	2C	o-	.	.	2c	.	.	.	.	.
=60	=60	=60	=60	=60	=60	=60	=60	=60	=60	=60	=60
2F	-ter	1D	-mni-	2r	.	1A	-tens,	0r	.	0r	.
4E	.	.	.	2f	[o-	.	.	.	.	.	.
4D	.	.	.	.	.	.	.	.	.	.	.
1C	.	1E	-po-	2g	-mni-	1r	.	.	.	.	.
.	.	.	.	[2e	-po-	.	.	.	.	.	.
=61	=61	=61	=61	=61	=61	=61	=61	=61	=61	=61	=61
1.G	o-	1C	-tens.	2e]	.	1r	.	2r	.	0r	.
.	.	.	.	4d	.	.	.	2g	De-	.	.
.	.	.	.	4c	.	.	.	.	.	.	.
.	.	1r	.	1d	.	2r	.	2b-y	-us	.	.
2F	-mni-	.	.	.	.	2f	[o-	2a	Pa-	.	.
=62	=62	=62	=62	=62	=62	=62	=62	=62	=62	=62	=62
1A	-po-	0r	.	2c	.	2e	-mni-	2cc	-ter	0r	.
.	.	.	.	4B-y	.	2c	-po-	2cc	o-	.	.
.	.	.	.	4A	.	.	.	.	.	.	.
[1B-y	-tens].	.	.	1G	.	1d	-tens,	2.b-y	-mni-	.	.
.	.	.	.	.	.	.	.	8aL	.	.	.
.	.	.	.	.	.	.	.	8gJ	.	.	.
=63	=63	=63	=63	=63	=63	=63	=63	=63	=63	=63	=63
1B-]	.	0r	.	1.d	.	0r	.	2f	.	2r	.
.	.	.	.	.	.	.	.	2b-y	.	2dd	De-
1r	.	.	.	.	.	.	.	1a	-po-	2ff	-us
.	.	.	.	2c	.	.	.	.	.	2ee	Pa-
=64	=64	=64	=64	=64	=64	=64	=64	=64	=64	=64	=64
0r	.	1C	Do-	1e	.	1c	o-	2.g	.	2gg	-ter
.	.	.	.	.	.	.	.	.	.	2gg	o-
.	.	.	.	.	.	.	.	8fL	.	.	.
.	.	.	.	.	.	.	.	8eJ	.	.	.
.	.	2.D	-mi-	[1f	-tens].	2.A	-mni-	4d	.	2.ff	-mni-
.	.	.	.	.	.	.	.	4c	.	.	.
.	.	.	.	.	.	.	.	[2f	.	.	.
.	.	4E	.	.	.	4G	.	.	.	8eeL	.
.	.	.	.	.	.	.	.	.	.	8ddJ	.
=65	=65	=65	=65	=65	=65	=65	=65	=65	=65	=65	=65
0r	.	2F	.	1f]	.	2A	.	4f]	.	2cc	.
.	.	.	.	.	.	.	.	4e	.	.	.
.	.	2BB-y	.	.	.	2B-y	.	2d	.	2ff	.
.	.	1C	-ne	1r	.	2.G	-po-	1c	-tens.	1ee	-po-
.	.	.	.	.	.	4A	.	.	.	.	.
=66	=66	=66	=66	=66	=66	=66	=66	=66	=66	=66	=66
0r	.	1G	Fi-	0r	.	4B-y	.	1r	.	2.dd	.
.	.	.	.	.	.	4c	.	.	.	.	.
.	.	.	.	.	.	2d	.	.	.	.	.
.	.	.	.	.	.	.	.	.	.	8ccL	.
.	.	.	.	.	.	.	.	.	.	8b-yJ	.
.	.	2.A	.	.	.	2c	.	1cc	Do-	4a	.
.	.	.	.	.	.	.	.	.	.	4g	.
.	.	.	.	.	.	2e	.	.	.	[2cc	.
.	.	4B-y	.	.	.	.	.	.	.	.	.
=67	=67	=67	=67	=67	=67	=67	=67	=67	=67	=67	=67
1F	Do-	2c	.	0r	.	1f	.	2a	-mi-	4cc]	.
.	.	.	.	.	.	.	.	.	.	4b-y	.
.	.	2F	.	.	.	.	.	2cc	-ne	2a	.
1G	-mi-	1B-y	.	.	.	2d	.	4b-y	Fi-	1g	-tens.
.	.	.	.	.	.	.	.	4a	.	.	.
.	.	.	.	.	.	[2e	.	4g	.	.	.
.	.	.	.	.	.	.	.	4f	.	.	.
=68	=68	=68	=68	=68	=68	=68	=68	=68	=68	=68	=68
1A	-ne	2c	.	0r	.	2e]	.	4e	.	1r	.
.	.	.	.	.	.	.	.	4c	.	.	.
.	.	2F	.	.	.	4d	.	1cc	.	.	.
.	.	.	.	.	.	4c	.	.	.	.	.
1G	Fi-	1B-y	.	.	.	1d	.	.	.	1gg	[Do]-
.	.	.	.	.	.	.	.	2bni	.	.	.
=69	=69	=69	=69	=69	=69	=69	=69	=69	=69	=69	=69
1C	-li	1G	-li	1c	Do-	2c	-tens].	2.cc	.	2ee	-mi-
.	.	.	.	.	.	2e	.	.	.	2gg	.
.	.	.	.	.	.	.	.	4b-y	.	.	.
1r	.	1r	.	1d	-mi-	1f	Do-	4a	.	4ff	-ne
.	.	.	.	.	.	.	.	4g	.	4ee	.
.	.	.	.	.	.	.	.	[2b-y	.	4dd	.
.	.	.	.	.	.	.	.	.	.	4cc	.
=70	=70	=70	=70	=70	=70	=70	=70	=70	=70	=70	=70
0r	.	0r	.	1e	-ne	2g	-mi-	2b-]	.	4b-y	.
.	.	.	.	.	.	.	.	.	.	4g	.
.	.	.	.	.	.	2c	-ne	4a	.	1gg	Fi-
.	.	.	.	.	.	.	.	4g	.	.	.
.	.	.	.	1d	Fi-	2.f	Fi-	1a	-li	.	.
.	.	.	.	.	.	.	.	.	.	2ff#i	.
.	.	.	.	.	.	4e	.	.	.	.	.
=71	=71	=71	=71	=71	=71	=71	=71	=71	=71	=71	=71
0r	.	2r	.	1G	-li	1d	-li	2r	.	2.gg	-li
.	.	2G	u-	.	.	.	.	2b-y	u-	.	.
.	.	.	.	.	.	.	.	.	.	4ff	.
.	.	2A	-ni-	1r	.	[1c	.	2cc	-ni-	4ee	.
.	.	.	.	.	.	.	.	.	.	4dd	.
.	.	[2F	-ge-	.	.	.	.	[2a	-ge-	[2ff	.
=72	=72	=72	=72	=72	=72	=72	=72	=72	=72	=72	=72
0r	.	4F]	.	0r	.	1c]	.	2a]	.	2ff]	.
.	.	4E	.	.	.	.	.	.	.	.	.
.	.	2F	.	.	.	.	.	4g	.	4ee	.
.	.	.	.	.	.	.	.	4f	.	4dd	.
.	.	1C	-ni-	.	.	[1c	u-	1g	.	1ee	.
=73	=73	=73	=73	=73	=73	=73	=73	=73	=73	=73	=73
0r	.	1F	-te	0r	.	2c]	.	2f	.	2r	.
.	.	.	.	.	.	2d	-ni-	4e	.	2ff	u-
.	.	.	.	.	.	.	.	4d	-ni-	.	.
.	.	1r	.	.	.	2e	-ge-	1c	-te	2gg	-ni-
.	.	.	.	.	.	[2c	-ni-	.	.	[2ee	-ge-
=74	=74	=74	=74	=74	=74	=74	=74	=74	=74	=74	=74
0r	.	0r	.	0r	.	2c]	.	1.g	Ie-	2ee]	.
.	.	.	.	.	.	4B-y	.	.	.	4dd	.
.	.	.	.	.	.	4A	.	.	.	4cc	.
.	.	.	.	.	.	4B-y	.	.	.	1dd	.
.	.	.	.	.	.	4c	.	.	.	.	.
.	.	.	.	.	.	4d	.	2f	-su	.	.
.	.	.	.	.	.	4e	.	.	.	.	.
=75	=75	=75	=75	=75	=75	=75	=75	=75	=75	=75	=75
0r	.	1r	.	0r	.	1f	.	1a	Chri-	2cc	.
.	.	.	.	.	.	.	.	.	.	4b-y	.
.	.	.	.	.	.	.	.	.	.	4a	-ni-
.	.	1G	Ie-	.	.	1d	-te	[1b-y	-ste.	1g	-te
=76	=76	=76	=76	=76	=76	=76	=76	=76	=76	=76	=76
1.B-y	Ie-	2.G	-su	0r	.	1r	.	1b-]	.	1.dd	Ie-
.	.	8FL	.	.	.	.	.	.	.	.	.
.	.	8EJ	.	.	.	.	.	.	.	.	.
.	.	2D	.	.	.	2r	.	1r	.	.	.
2A	.	2F	.	.	.	[2c	Ie-	.	.	2cc	-su
=77	=77	=77	=77	=77	=77	=77	=77	=77	=77	=77	=77
2G	-su	2C	Chri-	0r	.	4c]	.	0r	.	1ee	Chri-
.	.	.	.	.	.	4B-y	.	.	.	.	.
2.A	Chri-	2.c	.	.	.	4A	.	.	.	.	.
.	.	.	.	.	.	4G	.	.	.	.	.
.	.	.	.	.	.	2F	-su	.	.	[1ff	-ste.
4G	.	4B-y	.	.	.	.	.	.	.	.	.
4F	.	[2A	.	.	.	[2c	Chri-	.	.	.	.
4E	.	.	.	.	.	.	.	.	.	.	.
=78	=78	=78	=78	=78	=78	=78	=78	=78	=78	=78	=78
1D	.	2A]	.	1.f	Ie-	4c]	.	0r	.	1ff]	.
.	.	.	.	.	.	8B-yL	.	.	.	.	.
.	.	.	.	.	.	8AJ	.	.	.	.	.
.	.	4G	.	.	.	2B-y	.	.	.	.	.
.	.	4F	.	.	.	.	.	.	.	.	.
1C	-ste.	2A	.	.	.	1c	.	.	.	1r	.
.	.	[2G	.	2e	.	.	.	.	.	.	.
=79	=79	=79	=79	=79	=79	=79	=79	=79	=79	=79	=79
1r	.	4G]	.	2d	-su	2B-y	.	0r	.	0r	.
.	.	4F	.	.	.	.	.	.	.	.	.
.	.	4E	.	2.e	Chri-	2.c	.	.	.	.	.
.	.	4D	.	.	.	.	.	.	.	.	.
1C	Do-	2C	.	.	.	.	.	.	.	.	.
.	.	.	.	4d	.	4B-y	.	.	.	.	.
.	.	2E	.	4c	.	[2A	.	.	.	.	.
.	.	.	.	4B-y	.	.	.	.	.	.	.
=80	=80	=80	=80	=80	=80	=80	=80	=80	=80	=80	=80
2D	-mi-	1F	.	1A	.	2A]	.	1f	Do-	0r	.
1F	.	.	.	.	.	4G	.	.	.	.	.
.	.	.	.	.	.	4F	.	.	.	.	.
.	.	1C	-ste.	1G	-ste.	[1c	-ste.	1g	-mi-	.	.
2E	-ne	.	.	.	.	.	.	.	.	.	.
=81	=81	=81	=81	=81	=81	=81	=81	=81	=81	=81	=81
2F	De-	2r	.	1r	.	1c]	.	1a	-ne	0r	.
2.C	-us,	2c	Do-	.	.	.	.	.	.	.	.
.	.	2.c	-mi-	1G	Do-	1r	.	1f	De-	.	.
4D	.	.	.	.	.	.	.	.	.	.	.
2E	.	.	.	.	.	.	.	.	.	.	.
.	.	4B-y	.	.	.	.	.	.	.	.	.
=82	=82	=82	=82	=82	=82	=82	=82	=82	=82	=82	=82
2F	A-	2A	-ne	2A	-mi-	1c	Do-	1c	-us,	1cc	Do-
2E	.	1G	De-	1c	.	.	.	.	.	.	.
1D	-gnus	.	.	.	.	1f	.	1r	.	1dd	-mi-
.	.	2F	.	2B-y	.	.	.	.	.	.	.
=83	=83	=83	=83	=83	=83	=83	=83	=83	=83	=83	=83
1C	De-	2G	.	2c	-ne	2e	-[mi]-	0r	.	1ee	-ne
.	.	2c	.	2.G	De-	2.g	-ne	.	.	.	.
1G	-i,	4B-y	.	.	.	.	.	.	.	1dd	De-
.	.	4A	.	4A	.	4f	.	.	.	.	.
.	.	4G	.	2B-y	-i,	2d	.	.	.	.	.
.	.	4F	.	.	.	.	.	.	.	.	.
=84	=84	=84	=84	=84	=84	=84	=84	=84	=84	=84	=84
2r	.	4E	.	2c	A-	2e	De-	0r	.	1g	-us,
.	.	4F	.	.	.	.	.	.	.	.	.
1G	A-	2G	.	2B-y	.	2d	.	.	.	.	.
.	.	1D	-us,	1A	-gnus	1a	.	.	.	1r	.
2F	.	.	.	.	.	.	.	.	.	.	.
=85	=85	=85	=85	=85	=85	=85	=85	=85	=85	=85	=85
2G	.	0r	.	1G	De-	2b-y	.	0r	.	0r	.
2E	.	.	.	.	.	4a	.	.	.	.	.
.	.	.	.	.	.	4g	.	.	.	.	.
2D	-gnus	.	.	1d	-i,	4a	.	.	.	.	.
.	.	.	.	.	.	4g	.	.	.	.	.
[2B-y	De-	.	.	.	.	4f	.	.	.	.	.
.	.	.	.	.	.	4e	.	.	.	.	.
=86	=86	=86	=86	=86	=86	=86	=86	=86	=86	=86	=86
2B-]	.	2.G	A-	2r	.	1d	-us,	0r	.	0r	.
4A	.	.	.	1d	[A-	.	.	.	.	.	.
4G	.	4F	.	.	.	.	.	.	.	.	.
2B-y	.	2G	.	.	.	1r	.	.	.	.	.
2A	.	2A	-gnus	2c	.	.	.	.	.	.	.
=87	=87	=87	=87	=87	=87	=87	=87	=87	=87	=87	=87
1G	-i,	2.B-y	De-	2d	.	1B-y	[De-	0r	.	0r	.
.	.	.	.	2B-y	-gnus	.	.	.	.	.	.
.	.	8AL	.	.	.	.	.	.	.	.	.
.	.	8GJ	.	.	.	.	.	.	.	.	.
2r	.	2F	.	2A	De-	2c	.	.	.	.	.
2B-y	Fi-	2BB-y	.	[2f	.	[2d	.	.	.	.	.
=88	=88	=88	=88	=88	=88	=88	=88	=88	=88	=88	=88
2A	.	2F	.	2f]	.	4d]	.	0r	.	0r	.
.	.	.	.	.	.	4c	.	.	.	.	.
2G	.	2G	.	4e	.	2B-y	.	.	.	.	.
.	.	.	.	4d	.	.	.	.	.	.	.
2F	.	2D	.	2f	.	2A	.	.	.	.	.
[2G	.	[2B-y	.	2e	.	2G	.	.	.	.	.
=89	=89	=89	=89	=89	=89	=89	=89	=89	=89	=89	=89
2G]	.	2B-]	.	1d	-i],	1g	.	1.b-y	A-	0r	.
4F	.	4A	.	.	.	.	.	.	.	.	.
4E	.	4G	.	.	.	.	.	.	.	.	.
1D	-li-	2.d	.	2r	.	1f	-us],	.	.	.	.
.	.	.	.	2f	Fi-	.	.	2a	-gnus	.	.
.	.	4c	.	.	.	.	.	.	.	.	.
=90	=90	=90	=90	=90	=90	=90	=90	=90	=90	=90	=90
2G	-us	2B-y	.	2e	.	2r	.	2g	De-	0r	.
2.F	Pa-	1A	.	2d	.	2f	A-	2.a	.	.	.
.	.	.	.	2c	.	2f	-gnus	.	.	.	.
4E	.	.	.	.	.	.	.	4g	.	.	.
4D	.	2A	-i	[2d	.	[2f	De-	4f	.	.	.
4C	.	.	.	.	.	.	.	4e	.	.	.
=91	=91	=91	=91	=91	=91	=91	=91	=91	=91	=91	=91
1BB-y	-tris,	2B-y	Fi-	2d]	.	2f]	.	1d	.	1.ff	Do-
.	.	2.F	-li-	4c	.	4e	.	.	.	.	.
.	.	.	.	4B-y	.	4d	.	.	.	.	.
1r	.	.	.	1A	-li-	1a	-i,	1c	-i,	.	.
.	.	4G	.	.	.	.	.	.	.	.	.
.	.	2A	.	.	.	.	.	.	.	2ee	-mi-
=92	=92	=92	=92	=92	=92	=92	=92	=92	=92	=92	=92
0r	.	2B-y	.	2d	-us	2r	.	1r	.	2dd	-[ne
.	.	2c	.	2.c	Pa-	2A	[A-	.	.	2.ee	De-
.	.	2C	.	.	.	2G	.	1c	Fi-	.	.
.	.	.	.	4B-y	.	.	.	.	.	4dd	.
.	.	[2F	.	4A	.	[2A	-gnus	.	.	4cc	.
.	.	.	.	4G	.	.	.	.	.	4b-y	.
=93	=93	=93	=93	=93	=93	=93	=93	=93	=93	=93	=93
1D	[Fi-	4F]	.	1F	-tris,	2A]	.	2d	.	1a	.
.	.	4E	.	.	.	.	.	.	.	.	.
.	.	2F	.	.	.	4G	.	1f	.	.	.
.	.	.	.	.	.	4F	.	.	.	.	.
2E	-li-	1C	-us	1r	.	2.c	De-	.	.	1g	-us],
2C	-us	.	.	.	.	.	.	2e	-li-	.	.
.	.	.	.	.	.	4B-y	.	.	.	.	.
=94	=94	=94	=94	=94	=94	=94	=94	=94	=94	=94	=94
2D	Pa-	1F	Pa-	0r	.	1A	.	2f	-us	1r	.
1F	.	.	.	.	.	.	.	2.c	Pa-	.	.
.	.	1C	-tris,	.	.	1G	-i],	.	.	1g	A-
.	.	.	.	.	.	.	.	4d	.	.	.
2E	.	.	.	.	.	.	.	2e	.	.	.
=95	=95	=95	=95	=95	=95	=95	=95	=95	=95	=95	=95
2D	.	0r	.	1A	[Fi-	1r	.	2f	.	2a	-gnus
2C	.	.	.	.	.	.	.	2e	.	1cc	De-
1G	.	.	.	2B-y	-li-	2.g	Fi-	1d	.	.	.
.	.	.	.	2G	-us	.	.	.	.	2b-y	.
.	.	.	.	.	.	4f	.	.	.	.	.
=96	=96	=96	=96	=96	=96	=96	=96	=96	=96	=96	=96
2.C	.	0r	.	2A	Pa-	4e	.	1c	.	2cc	-i,
.	.	.	.	.	.	4d	.	.	.	.	.
.	.	.	.	1c	.	1e	.	.	.	2.g	Fi-
4D	.	.	.	.	.	.	.	.	.	.	.
4E	.	.	.	.	.	.	.	1g	-tris,	.	.
4F	.	.	.	.	.	.	.	.	.	4a	.
2G	.	.	.	2B-y	.	2d	-li-	.	.	2b-y	.
=97	=97	=97	=97	=97	=97	=97	=97	=97	=97	=97	=97
2F	.	0r	.	2A	.	2f	-us	2r	.	2cc	-li-
2G	.	.	.	2G	.	2.d	Pa-	1g	[Pa-	2b-y	-us
1D	.	.	.	1d	.	.	.	.	.	1a	Pa-
.	.	.	.	.	.	4e	.	.	.	.	.
.	.	.	.	.	.	2f	.	2f#i	.	.	.
=98	=98	=98	=98	=98	=98	=98	=98	=98	=98	=98	=98
[0Gl	-tris].	2r	.	[0dl	-tris].	2d	.	[0gl	-tris].	[0gl	-tris.
.	.	2G	[Fi-	.	.	2.B-y	.	.	.	.	.
.	.	2A	-li-	.	.	.	.	.	.	.	.
.	.	.	.	.	.	4c	.	.	.	.	.
.	.	2A	-us	.	.	2d	.	.	.	.	.
=99	=99	=99	=99	=99	=99	=99	=99	=99	=99	=99	=99
0G_	.	2.B-y	Pa-	0d_	.	[0gl	-tris.	0g_	.	0g_	.
.	.	4c	.	.	.	.	.	.	.	.	.
.	.	2d	.	.	.	.	.	.	.	.	.
.	.	2G	.	.	.	.	.	.	.	.	.
=	=	=	=	=	=	=	=	=	=	=	=
00G]	.	00B-y	-tris].	00d]	.	00g]	.	00g]	.	00g]	.
=||	=||	=||	=||	=||	=||	=||	=||	=||	=||	=||	=||
*M2/1	*	*M2/1	*	*M2/1	*	*M2/1	*	*M2/1	*	*M2/1	*
*met(C|)	*	*met(C|)	*	*met(C|)	*	*met(C|)	*	*met(C|)	*	*met(C|)	*
!!section: Qui tollis
!!!OMD: Qui tollis
!	!	!	!	!LO:TX:a:t=Canon&colon; tenor I/bassus at the fifth	!	!	!	!	!	!LO:TX:a:t=Canon&colon; superius/altus I at the fifth	!
0r	.	0r	.	0r	.	2.G	Qui	0r	.	1g	Qui
.	.	.	.	.	.	4A	.	.	.	.	.
.	.	.	.	.	.	4B-y	.	.	.	2g	tol-
.	.	.	.	.	.	4c	.	.	.	.	.
.	.	.	.	.	.	2d	.	.	.	2f	-lis
=100	=100	=100	=100	=100	=100	=100	=100	=100	=100	=100	=100
0r	.	0r	.	0r	.	2G	.	0r	.	2g	pec-
.	.	.	.	.	.	1g	tol-	.	.	2b-y	-ca-
.	.	.	.	.	.	.	.	.	.	2a	-ta
.	.	.	.	.	.	2f	.	.	.	2a	mun-
=101	=101	=101	=101	=101	=101	=101	=101	=101	=101	=101	=101
0r	.	2.C	Qui-	0r	.	1.e	.	1c	Qui	0g	-di,
.	.	4D	.	.	.	.	.	.	.	.	.
.	.	4E	.	.	.	.	.	2c	tol-	.	.
.	.	4F	.	.	.	.	.	.	.	.	.
.	.	2G	.	.	.	2d	.	2B-y	-lis	.	.
=102	=102	=102	=102	=102	=102	=102	=102	=102	=102	=102	=102
0r	.	2C	-tol-	0r	.	1e	-lis	2c	pec-	2r	.
.	.	1c	-lis	.	.	.	.	2e	-ca-	2g	mi-
.	.	.	.	.	.	2r	.	2d	-ta	2a	-se-
.	.	2B-y	pec-	.	.	2g	pec-	2d	mun-	2b-y	-re-
=103	=103	=103	=103	=103	=103	=103	=103	=103	=103	=103	=103
0r	.	2A	-ca-	0r	.	2.a	-ca-	0c	-di,	2.cc	-re
.	.	4F	.	.	.	.	.	.	.	.	.
.	.	4G	.	.	.	4g	.	.	.	4b-y	.
.	.	4A	.	.	.	2f	.	.	.	2a	.
.	.	4B-y	.	.	.	.	.	.	.	.	.
.	.	2c	.	.	.	2e	-ta	.	.	2g	.
=104	=104	=104	=104	=104	=104	=104	=104	=104	=104	=104	=104
0r	.	2F	.	0r	.	1f	mun-	2r	.	2a	.
.	.	2A	-ta	.	.	.	.	2c	mi-	2cc	.
.	.	1G	mun-	.	.	1g	-di,	2d	-se-	1b-y	.
.	.	.	.	.	.	.	.	2e	-re-	.	.
=105	=105	=105	=105	=105	=105	=105	=105	=105	=105	=105	=105
0r	.	1D	-di,	0r	.	2r	.	2.f	-re	2a	.
.	.	.	.	.	.	2a	mi-	.	.	1ff	no-
.	.	.	.	.	.	.	.	4e	.	.	.
.	.	2r	.	.	.	2b-y	-se-	2d	.	.	.
.	.	2A	mi-	.	.	[2cc	-re-	2c	.	[2ee	.
=106	=106	=106	=106	=106	=106	=106	=106	=106	=106	=106	=106
0r	.	1B-y	-se-	0r	.	4cc]	.	2d	no-	4ee]	.
.	.	.	.	.	.	4b-y	.	.	.	4dd	.
.	.	.	.	.	.	1b-y	.	2f	.	1dd	.
.	.	1c	-re-	.	.	.	.	1e	.	.	.
.	.	.	.	.	.	2a	.	.	.	2cc#i	.
=107	=107	=107	=107	=107	=107	=107	=107	=107	=107	=107	=107
0r	.	2.B-y	-re	1G	Mi-	2b-y	-re	2d	.	1dd	-bis.
.	.	.	.	.	.	2B-y	.	1b-y	.	.	.
.	.	4c	.	.	.	.	.	.	.	.	.
.	.	[1d	no-	2G	-se-	2G	no-	.	.	1r	.
.	.	.	.	2F	-re-	2A	.	[2a	.	.	.
=108	=108	=108	=108	=108	=108	=108	=108	=108	=108	=108	=108
0r	.	1d]	.	2G	-re	2.B-y	-bis.	4a]	.	0r	.
.	.	.	.	.	.	.	.	4g	.	.	.
.	.	.	.	2B-y	.	.	.	1g	.	.	.
.	.	.	.	.	.	4c	.	.	.	.	.
.	.	1D	-bis.	1A	no-	1d	.	.	.	.	.
.	.	.	.	.	.	.	.	2f#i	.	.	.
=109	=109	=109	=109	=109	=109	=109	=109	=109	=109	=109	=109
1C	Mi-	1r	.	0G	-bis.	2r	.	1g	-bis.	0r	.
.	.	.	.	.	.	2e	[Qui	.	.	.	.
2C	-se-	2r	.	.	.	2c	tol-	1r	.	.	.
2BB-y	-re-	2B-y	Qui	.	.	2d	.	.	.	.	.
=110	=110	=110	=110	=110	=110	=110	=110	=110	=110	=110	=110
2C	-re	2G	tol-	2r	.	1e	-lis	0r	.	0r	.
2E	.	1c	-lis	2G	Qui	.	.	.	.	.	.
1D	no-	.	.	2A	tol-	2.f	pec-	.	.	.	.
.	.	2B-y	pec-	2B-y	.	.	.	.	.	.	.
.	.	.	.	.	.	8eL	.	.	.	.	.
.	.	.	.	.	.	8dJ	.	.	.	.	.
=111	=111	=111	=111	=111	=111	=111	=111	=111	=111	=111	=111
0C	-bis.	2A	-ca-	2.c	-lis	2.e	-ca-	0r	.	0r	.
.	.	2G	.	.	.	.	.	.	.	.	.
.	.	.	.	4B-y	.	4d	.	.	.	.	.
.	.	2.c	.	2A	.	4e	.	.	.	.	.
.	.	.	.	.	.	4f	.	.	.	.	.
.	.	.	.	2G	pec-	2g	.	.	.	.	.
.	.	4B-y	.	.	.	.	.	.	.	.	.
=112	=112	=112	=112	=112	=112	=112	=112	=112	=112	=112	=112
2r	.	4c	.	2A	-ca-	2e	-ta	0r	.	0r	.
.	.	4B-y	.	.	.	.	.	.	.	.	.
2C	Qui	4A	.	2c	.	1a	mun-	.	.	.	.
.	.	4G	.	.	.	.	.	.	.	.	.
2D	tol-	2F	.	1B-y	.	.	.	.	.	.	.
2E	.	2G	.	.	.	2g	.	.	.	.	.
=113	=113	=113	=113	=113	=113	=113	=113	=113	=113	=113	=113
2.F	-lis	2D	-ta	2A	-ta	[0a	-di],	0r	.	2r	.
.	.	2.A	mun-	1f	mun-	.	.	.	.	2cc	Qui
4E	.	.	.	.	.	.	.	.	.	.	.
2D	.	.	.	.	.	.	.	.	.	2dd	tol-
.	.	4B-y	.	.	.	.	.	.	.	.	.
2C	pec-	2c	.	[2e	.	.	.	.	.	2ee	.
=114	=114	=114	=114	=114	=114	=114	=114	=114	=114	=114	=114
2D	-ca-	2F	.	4e]	.	1a]	.	0r	.	1ff	-lis
.	.	.	.	4d	.	.	.	.	.	.	.
2F	.	2A	.	1d	.	.	.	.	.	.	.
1E	.	1G	-di,	.	.	1r	.	.	.	1gg	pec-
.	.	.	.	2c#i	.	.	.	.	.	.	.
=115	=115	=115	=115	=115	=115	=115	=115	=115	=115	=115	=115
2D	-ta	0r	.	1d	-di,	0r	.	2r	.	2.ff	-ca-
1B-y	mun-	.	.	.	.	.	.	2f	Qui	.	.
.	.	.	.	.	.	.	.	.	.	4ee	.
.	.	.	.	1r	.	.	.	2g	tol-	2dd	.
[2A	.	.	.	.	.	.	.	2a	.	2cc	.
=116	=116	=116	=116	=116	=116	=116	=116	=116	=116	=116	=116
4A]	.	1G	su-	0r	.	0r	.	1b-y	-lis	2dd	.
4G	.	.	.	.	.	.	.	.	.	.	.
1G	.	.	.	.	.	.	.	.	.	2b-y	-ta
.	.	1A	-sci-	.	.	.	.	1cc	pec-	1a	mun-
2F#i	.	.	.	.	.	.	.	.	.	.	.
=117	=117	=117	=117	=117	=117	=117	=117	=117	=117	=117	=117
1G	-di,	2B-y	-pe	0r	.	1d	su-	2.b-y	-ca-	1g	-di,
.	.	2.G	de-	.	.	.	.	.	.	.	.
.	.	.	.	.	.	.	.	4a	.	.	.
1r	.	.	.	.	.	2e	-sci-	2g	.	1r	.
.	.	4A	-pre-	.	.	.	.	.	.	.	.
.	.	[2B-y	-ca-	.	.	[2d	.	2f	.	.	.
=118	=118	=118	=118	=118	=118	=118	=118	=118	=118	=118	=118
0r	.	2B-]	.	0r	.	4d]	.	2g	.	1g	su-
.	.	.	.	.	.	4c	.	.	.	.	.
.	.	2c	-ti-	.	.	1cc	.	2e	-ta	.	.
.	.	1G	-o-	.	.	.	.	1d	mun-	1dd	-sci-
.	.	.	.	.	.	2bni	.	.	.	.	.
=119	=119	=119	=119	=119	=119	=119	=119	=119	=119	=119	=119
0r	.	2.c	.	0r	.	2cc	-pe	1c	-di,	2.ee	-pe
.	.	.	.	.	.	2.c	de-	.	.	.	.
.	.	4B-y	.	.	.	.	.	.	.	4dd	de-
.	.	2A	.	.	.	.	.	1r	.	2cc	-pre-
.	.	.	.	.	.	4d	.	.	.	.	.
.	.	2G	.	.	.	2e	.	.	.	2b-y	-ca-
=120	=120	=120	=120	=120	=120	=120	=120	=120	=120	=120	=120
0r	.	2F	.	0r	.	1f	-pre-	1c	su-	4a	-ti-
.	.	.	.	.	.	.	.	.	.	4g	-o-
.	.	2A	-nem	.	.	.	.	.	.	1cc	-nem
.	.	1G	no-	.	.	2e	-ca-	1g	-sci-	.	.
.	.	.	.	.	.	2d	-ti-	.	.	2bni	no-
=121	=121	=121	=121	=121	=121	=121	=121	=121	=121	=121	=121
0r	.	1F	-stram,	2r	.	2.f	-o-	2.a	-pe	1cc	-stram.
.	.	.	.	2c	su-	.	.	.	.	.	.
.	.	.	.	.	.	4e	.	4g	de-	.	.
.	.	1r	.	2d	-sci-	2d	.	2f	-pre-	1r	.
.	.	.	.	2e	-pe	2c	.	2e	-ca-	.	.
=122	=122	=122	=122	=122	=122	=122	=122	=122	=122	=122	=122
0r	.	0r	.	1f	de-	2B-y	-nem	4d	-ti-	0r	.
.	.	.	.	.	.	.	.	4c	-o-	.	.
.	.	.	.	.	.	2d	.	1f	-nem	.	.
.	.	.	.	1g	-pre-	2c	no-	.	.	.	.
.	.	.	.	.	.	2g	.	2e	no-	.	.
=123	=123	=123	=123	=123	=123	=123	=123	=123	=123	=123	=123
2r	.	0r	.	2.f	-ca-	2.a	.	1f	-stram.	0r	.
2F	su-	.	.	.	.	.	.	.	.	.	.
.	.	.	.	4e	.	4g	.	.	.	.	.
2G	-sci-	.	.	2d	.	2b-y	.	1r	.	.	.
2A	-pe	.	.	2c	-ti-	[2a	.	.	.	.	.
=124	=124	=124	=124	=124	=124	=124	=124	=124	=124	=124	=124
1B-y	de-	1r	.	2d	-o-	4a]	.	0r	.	0r	.
.	.	.	.	.	.	4g	.	.	.	.	.
.	.	.	.	2B-y	-nem	1g	.	.	.	.	.
1c	-pre-	2r	.	1A	no-	.	.	.	.	.	.
.	.	2c	[de-	.	.	2f	.	.	.	.	.
=125	=125	=125	=125	=125	=125	=125	=125	=125	=125	=125	=125
2.B-y	-ca-	2.d	-pre-	1G	-stram.	2.g	.	0r	.	0r	.
4A	.	4c	-ca-	.	.	4f	.	.	.	.	.
2G	.	2B-y	-ti-	1r	.	2e	.	.	.	.	.
2F	-ti-	2A	-o-	.	.	[2d	.	.	.	.	.
=126	=126	=126	=126	=126	=126	=126	=126	=126	=126	=126	=126
2G	-o-	2B-y	-nem	1G	Qui	2d]	.	0r	.	0r	.
2E	-nem	1G	no-	.	.	1c	.	.	.	.	.
1D	no-	.	.	1d	se-	.	.	.	.	.	.
.	.	2F	.	.	.	2Bni	.	.	.	.	.
=127	=127	=127	=127	=127	=127	=127	=127	=127	=127	=127	=127
1C	-stram.	1G	-stram].	2.e	-des	2.c	.	0r	.	0g	Qui
.	.	.	.	4d	ad	4d	.	.	.	.	.
1r	.	1r	.	2c	dex-	2e	.	.	.	.	.
.	.	.	.	2B-y	-te-	2d	.	.	.	.	.
=128	=128	=128	=128	=128	=128	=128	=128	=128	=128	=128	=128
1C	Qui	0r	.	4A	-ram	1e	.	0r	.	1cc	se-
.	.	.	.	4G	.	.	.	.	.	.	.
.	.	.	.	1c	Pa-	.	.	.	.	.	.
1G	se-	.	.	.	.	2d	.	.	.	1dd	.
.	.	.	.	2Bni	.	2g	.	.	.	.	.
=129	=129	=129	=129	=129	=129	=129	=129	=129	=129	=129	=129
2.A	-des	2r	.	1c	-tris,	1e	-stram.	0c	Qui	2.cc	.
.	.	2.A	Qui	.	.	.	.	.	.	.	.
4G	ad	.	.	.	.	.	.	.	.	4b-y	.
2F	dex-	.	.	1r	.	1r	.	.	.	2a	.
.	.	4B-y	.	.	.	.	.	.	.	.	.
2E	-te-	2c	.	.	.	.	.	.	.	2g	.
=130	=130	=130	=130	=130	=130	=130	=130	=130	=130	=130	=130
4D	-ram	2F	se-	0r	.	0r	.	1f	se-	1a	-des
4C	.	.	.	.	.	.	.	.	.	.	.
1F	Pa-	2A	.	.	.	.	.	.	.	.	.
.	.	2B-y	.	.	.	.	.	1g	.	2r	.
2E	.	2c	.	.	.	.	.	.	.	2g	ad
=131	=131	=131	=131	=131	=131	=131	=131	=131	=131	=131	=131
1F	-tris,	1A	-des	0r	.	2r	.	2.f	.	1cc	dex-
.	.	.	.	.	.	2a	Qui	.	.	.	.
.	.	.	.	.	.	.	.	4e	.	.	.
1r	.	2r	.	.	.	2b-y	se-	2d	.	2dd	-te-
.	.	2A	ad	.	.	2cc	-des	2c	.	2ee	-ram
=132	=132	=132	=132	=132	=132	=132	=132	=132	=132	=132	=132
0r	.	2D	dex-	0r	.	1a	ad	1d	-des	2ff	Pa-
.	.	2F	-te-	.	.	.	.	.	.	2dd	.
.	.	2G	-ram	.	.	2b-y	dex-	2r	.	1ee	-tris,
.	.	2A	.	.	.	[2a	.	2c	ad	.	.
=133	=133	=133	=133	=133	=133	=133	=133	=133	=133	=133	=133
0r	.	2D	Pa-	0r	.	4a]	.	1f	dex-	2r	.
.	.	.	.	.	.	4g	.	.	.	.	.
.	.	1B-y	.	.	.	4f	.	.	.	2.dd	mi-
.	.	.	.	.	.	4e	.	.	.	.	.
.	.	.	.	.	.	2d	.	2g	-te-	.	.
.	.	.	.	.	.	.	.	.	.	4ee	-se-
.	.	2A	.	.	.	2c	.	2a	-ram	2ff	-re-
=134	=134	=134	=134	=134	=134	=134	=134	=134	=134	=134	=134
0r	.	2G	.	0r	.	1d	.	2b-y	Pa-	4gg	-re
.	.	.	.	.	.	.	.	.	.	4dd	.
.	.	2B-y	.	.	.	.	.	2g	.	1gg	no-
.	.	2c	.	.	.	2e	-te-	1a	-tris,	.	.
.	.	2d	.	.	.	[2d	-ram	.	.	2ff#i	.
=135	=135	=135	=135	=135	=135	=135	=135	=135	=135	=135	=135
0r	.	0B-y	-tris.	0G	mi-	2d]	.	2r	.	1gg	-bis,
.	.	.	.	.	.	2.b-y	Pa-	2.g	mi-	.	.
.	.	.	.	.	.	.	.	.	.	2r	.
.	.	.	.	.	.	4a	.	4a	-se-	.	.
.	.	.	.	.	.	4g	.	2b-y	-re-	[2gg	[mi-
.	.	.	.	.	.	4f	.	.	.	.	.
=136	=136	=136	=136	=136	=136	=136	=136	=136	=136	=136	=136
0r	.	0r	.	1c	-se-	4e	.	4cc	-re	2gg]	.
.	.	.	.	.	.	4d	.	4g	.	.	.
.	.	.	.	.	.	1a	.	1cc	no-	4ff	-se-
.	.	.	.	.	.	.	.	.	.	4ee	-re-
.	.	.	.	1d	.	.	.	.	.	1ff	-re
.	.	.	.	.	.	4g	.	2bni	.	.	.
.	.	.	.	.	.	4f	.	.	.	.	.
=137	=137	=137	=137	=137	=137	=137	=137	=137	=137	=137	=137
0C	mi-	0r	.	2.c	-re-	1g	.	1cc	-bis,	0ee	no-
.	.	.	.	4B-y	.	.	.	.	.	.	.
.	.	.	.	2A	-re	[1c	.	2r	.	.	.
.	.	.	.	2G	no-	.	.	[2cc	[mi-	.	.
=138	=138	=138	=138	=138	=138	=138	=138	=138	=138	=138	=138
1F	-se-	0r	.	1A	-bis.	2c]	.	2cc]	.	1cc	-bis].
.	.	.	.	.	.	1f	.	4b-y	-se-	.	.
.	.	.	.	.	.	.	.	4a	-re-	.	.
1G	.	.	.	2r	.	.	.	1b-y	-re	1r	.
.	.	.	.	2G	Quo-	2e	.	.	.	.	.
=139	=139	=139	=139	=139	=139	=139	=139	=139	=139	=139	=139
2.F	-re-	2r	.	1c	-ni-	1f	-tris.	0a	no-	0r	.
.	.	2.A	Quo-	.	.	.	.	.	.	.	.
4E	.	.	.	.	.	.	.	.	.	.	.
2D	-re	.	.	2d	-am	1r	.	.	.	.	.
.	.	4B-y	.	.	.	.	.	.	.	.	.
2C	no-	2c	.	2e	tu	.	.	.	.	.	.
=140	=140	=140	=140	=140	=140	=140	=140	=140	=140	=140	=140
1D	-bis.	2A	-ni-	2f	so-	0r	.	1f	-bis].	0r	.
.	.	2B-y	-am	2d	.	.	.	.	.	.	.
2r	.	4c	tu	1e	-lus	.	.	1r	.	.	.
.	.	4B-y	.	.	.	.	.	.	.	.	.
2C	Quo-	4A	.	.	.	.	.	.	.	.	.
.	.	4G	.	.	.	.	.	.	.	.	.
=141	=141	=141	=141	=141	=141	=141	=141	=141	=141	=141	=141
1F	-ni-	2.A	so-	2r	.	2.f	Quo-	0r	.	0r	.
.	.	.	.	2.d	san-	.	.	.	.	.	.
.	.	4G	.	.	.	4e	.	.	.	.	.
2G	-am	2B-y	.	.	.	2d	.	.	.	.	.
.	.	.	.	4e	.	.	.	.	.	.	.
2A	tu	2A	.	2f	.	2c	-ni-	.	.	.	.
=142	=142	=142	=142	=142	=142	=142	=142	=142	=142	=142	=142
2B-y	so-	2G	.	4g	.	1.d	-am	0r	.	0r	.
.	.	.	.	4d	.	.	.	.	.	.	.
2G	.	4F	.	1g	.	.	.	.	.	.	.
.	.	4E	.	.	.	.	.	.	.	.	.
1A	-lus	2D	-lus	.	.	.	.	.	.	.	.
.	.	[2c	sa-	2f#i	.	2c	tu	.	.	.	.
=143	=143	=143	=143	=143	=143	=143	=143	=143	=143	=143	=143
2r	.	2c]	.	1g	-ctus.	2e	so-	0r	.	0r	.
2.G	san-	2.B-y	.	.	.	2.d	.	.	.	.	.
.	.	.	.	2r	.	.	.	.	.	.	.
4A	.	4A	.	.	.	4c	.	.	.	.	.
2B-y	.	4G	.	[2g	Tu	4B-y	.	.	.	.	.
.	.	4F	.	.	.	4A	.	.	.	.	.
=144	=144	=144	=144	=144	=144	=144	=144	=144	=144	=144	=144
4c	.	2E	.	2g]	.	2G	-lus	0r	.	0r	.
4G	.	.	.	.	.	.	.	.	.	.	.
1c	.	2C	.	4f	.	1A	san-	.	.	.	.
.	.	.	.	4e	.	.	.	.	.	.	.
.	.	1D	.	1f	.	.	.	.	.	.	.
2Bni	.	.	.	.	.	4G	.	.	.	.	.
.	.	.	.	.	.	4F	.	.	.	.	.
=145	=145	=145	=145	=145	=145	=145	=145	=145	=145	=145	=145
1c	-ctus.	0C	-ctus.	0e	so-	0G	-ctus.	0r	.	0g	Tu
2r	.	.	.	.	.	.	.	.	.	.	.
[2c	Tu	.	.	.	.	.	.	.	.	.	.
=146	=146	=146	=146	=146	=146	=146	=146	=146	=146	=146	=146
2c]	.	0r	.	1c	-lus.	2r	.	0r	.	1cc	so-
4B-y	.	.	.	.	.	1f	Tu	.	.	.	.
4A	.	.	.	.	.	.	.	.	.	.	.
1B-y	.	.	.	1r	.	.	.	.	.	1dd	.
.	.	.	.	.	.	4e	.	.	.	.	.
.	.	.	.	.	.	4d	.	.	.	.	.
=147	=147	=147	=147	=147	=147	=147	=147	=147	=147	=147	=147
0A	so-	0r	.	0r	.	2f	so-	0c	Tu	2.cc	-lus
.	.	.	.	.	.	2e	.	.	.	.	.
.	.	.	.	.	.	.	.	.	.	4dd	.
.	.	.	.	.	.	2c	-lus	.	.	2ee	.
.	.	.	.	.	.	[2a	Do-	.	.	[2cc	Do-
=148	=148	=148	=148	=148	=148	=148	=148	=148	=148	=148	=148
1F	-lus.	1r	.	0r	.	2a]	.	1f	so-	2cc]	.
.	.	.	.	.	.	1f	.	.	.	2dd	.
1r	.	1G	Tu	.	.	.	.	1g	.	1b-y	.
.	.	.	.	.	.	2e	-mi-	.	.	.	.
=149	=149	=149	=149	=149	=149	=149	=149	=149	=149	=149	=149
0r	.	2.D	so-	0r	.	0f	-nus.	2.f	-lus	2a	.
.	.	.	.	.	.	.	.	.	.	2.ff	.
.	.	4E	.	.	.	.	.	4g	.	.	.
.	.	2F	-lus	.	.	.	.	2a	.	.	.
.	.	.	.	.	.	.	.	.	.	4ee	.
.	.	2F	Do-	.	.	.	.	[2f	Do-	4dd	.
.	.	.	.	.	.	.	.	.	.	4cc	.
=150	=150	=150	=150	=150	=150	=150	=150	=150	=150	=150	=150
0r	.	2BB-y	-mi-	0r	.	1r	.	2f]	.	4dd	.
.	.	.	.	.	.	.	.	.	.	4cc	.
.	.	2B-y	-[nus].	.	.	.	.	2g	.	4b-y	.
.	.	.	.	.	.	.	.	.	.	4a	-mi-
.	.	1c	Tu	.	.	2r	.	1e	.	1g	-nus.
.	.	.	.	.	.	2c	Tu	.	.	.	.
=151	=151	=151	=151	=151	=151	=151	=151	=151	=151	=151	=151
0r	.	2.G	so-	0r	.	1g	so-	2d	.	2r	.
.	.	.	.	.	.	.	.	2.b-y	.	2dd	Tu
.	.	4A	.	.	.	.	.	.	.	.	.
.	.	4B-y	.	.	.	2f	.	.	.	1dd	so-
.	.	4c	.	.	.	.	.	4a	.	.	.
.	.	[2B-y	-lus	.	.	[2d	.	4g	.	.	.
.	.	.	.	.	.	.	.	4f	.	.	.
=152	=152	=152	=152	=152	=152	=152	=152	=152	=152	=152	=152
0r	.	2B-]	.	0r	.	2d]	.	4g	.	2b-y	-lus
.	.	.	.	.	.	.	.	4f	.	.	.
.	.	2G	Al-	.	.	1g	.	4e	.	2b-y	Al-
.	.	.	.	.	.	.	.	4d	-mi-	.	.
.	.	2A	-tis-	.	.	.	.	1c	-nus.	2cc	-tis-
.	.	2A	-si-	.	.	2f	.	.	.	2a	.
=153	=153	=153	=153	=153	=153	=153	=153	=153	=153	=153	=153
0r	.	2.G	-mus,	0G	Ie-	2g	-[lus]	2r	.	2b-y	-si-
.	.	.	.	.	.	2.b-y	Al-	2g	Tu	2.dd	-mus,
.	.	4A	.	.	.	.	.	.	.	.	.
.	.	1B-y	.	.	.	.	.	1g	so-	.	.
.	.	.	.	.	.	4a	.	.	.	4cc	.
.	.	.	.	.	.	2b-y	.	.	.	4b-y	.
.	.	.	.	.	.	.	.	.	.	4a	.
=154	=154	=154	=154	=154	=154	=154	=154	=154	=154	=154	=154
0r	.	0r	.	1c	-su	2cc	-tis-	2e	-lus	2g	.
.	.	.	.	.	.	1a	.	2e	Al-	2cc	.
.	.	.	.	1d	.	.	.	2f	-tis-	2a	Ie-
.	.	.	.	.	.	4g	.	2d	.	2b-y	-su
.	.	.	.	.	.	4f	.	.	.	.	.
=155	=155	=155	=155	=155	=155	=155	=155	=155	=155	=155	=155
0C	Ie-	0G	Ie-	2.c	Chri-	1g	-si-	2e	.	2.cc	Chri-
.	.	.	.	.	.	.	.	2.g	.	.	.
.	.	.	.	4d	.	.	.	.	.	4b-y	.
.	.	.	.	2e	.	1c	-mus,	.	.	2g	.
.	.	.	.	.	.	.	.	4f	.	.	.
.	.	.	.	[2c	.	.	.	4e	.	[2cc	.
.	.	.	.	.	.	.	.	4d	.	.	.
=156	=156	=156	=156	=156	=156	=156	=156	=156	=156	=156	=156
1F	-su	1A	-su	2c]	.	0r	.	2c	-si-	4cc]	.
.	.	.	.	.	.	.	.	.	.	4b-y	.
.	.	.	.	2d	.	.	.	2f	-mus,	1a	.
1G	.	1B-y	.	1B-y	.	.	.	2d	Ie-	.	.
.	.	.	.	.	.	.	.	2e	.	2g	.
=157	=157	=157	=157	=157	=157	=157	=157	=157	=157	=157	=157
2.F	Chri-	1c	Chri-	2A	.	0r	.	2.f	-su	2.a	.
.	.	.	.	2.f	.	.	.	.	.	.	.
4G	.	.	.	.	.	.	.	4e	.	4b-y	.
2A	.	1F	-ste,	.	.	.	.	2c	.	2cc	.
.	.	.	.	4e	.	.	.	.	.	.	.
[2F	.	.	.	4d	.	.	.	[2f	Chri-	[2a	.
.	.	.	.	4c	.	.	.	.	.	.	.
=158	=158	=158	=158	=158	=158	=158	=158	=158	=158	=158	=158
2F]	.	0r	.	4d	.	1r	.	4f]	.	2a]	.
.	.	.	.	4c	.	.	.	4e	.	.	.
2G	.	.	.	4B-y	.	.	.	1d	.	1b-y	.
.	.	.	.	4A	.	.	.	.	.	.	.
1E	.	.	.	1G	-ste,	2r	.	.	.	.	.
.	.	.	.	.	.	2G	Ie-	2c#i	.	4a	.
.	.	.	.	.	.	.	.	.	.	4g	.
=159	=159	=159	=159	=159	=159	=159	=159	=159	=159	=159	=159
[0Dl	-ste.	1F	[Ie-	2r	.	2A	.	2.d	.	2.f	.
.	.	.	.	2d	[Chri-	2B-y	.	.	.	.	.
.	.	.	.	.	.	.	.	4e	.	4g	.
.	.	2F	-su	[1dl	-ste].	2A	-su	1f	.	2a	.
.	.	2BB-y	Chri-	.	.	[2d	Chri-	.	.	2b-y	.
=160	=160	=160	=160	=160	=160	=160	=160	=160	=160	=160	=160
0D_	.	[0Fl	-ste].	0d_	.	2d]	.	[0fl	-ste.	[0al	-ste.
.	.	.	.	.	.	4c	.	.	.	.	.
.	.	.	.	.	.	4B-y	.	.	.	.	.
.	.	.	.	.	.	1A	.	.	.	.	.
=	=	=	=	=	=	=	=	=	=	=	=
00D]	.	00F]	.	00d]	.	00A	-ste.	00f]	.	00a]	.
=||	=||	=||	=||	=||	=||	=||	=||	=||	=||	=||	=||
*M2/1	*	*M2/1	*	*M2/1	*	*M2/1	*	*M2/1	*	*M2/1	*
*met(C|)	*	*met(C|)	*	*met(C|)	*	*met(C|)	*	*met(C|)	*	*met(C|)	*
!!section: Cum sancto spiritu
!!!OMD: Cum sancto spiritu
!	!	!	!	!LO:TX:a:t=Canon&colon; tenor I/bassus at the fifth	!	!	!	!	!	!LO:TX:a:t=Canon&colon; superius/altus I at the fifth	!
0r	.	1G	Cum	0r	.	0r	.	0r	.	1dd	Cum
.	.	2B-y	San-	.	.	.	.	.	.	2dd	San-
.	.	2A	-cto	.	.	.	.	.	.	2cc	-cto
=161	=161	=161	=161	=161	=161	=161	=161	=161	=161	=161	=161
0r	.	2.B-y	Spi-	0r	.	2r	.	0r	.	2dd	Spi-
.	.	.	.	.	.	2g	Cum	.	.	2b-y	-ri-
.	.	4c	.	.	.	.	.	.	.	.	.
.	.	1d	-ri-	.	.	2g	San-	.	.	1a	-tu,
.	.	.	.	.	.	2f	-cto	.	.	.	.
=162	=162	=162	=162	=162	=162	=162	=162	=162	=162	=162	=162
0r	.	1G	-tu,	0r	.	2g	Spi-	1g	Cum	2r	.
.	.	.	.	.	.	2e	-ri-	.	.	2b-y	in
.	.	1r	.	.	.	1d	-tu,	2g	San-	2b-y	glo-
.	.	.	.	.	.	.	.	2f	-cto	2a	-ri-
=163	=163	=163	=163	=163	=163	=163	=163	=163	=163	=163	=163
0r	.	0r	.	0r	.	2r	.	2g	Spi-	2b-y	-a
.	.	.	.	.	.	2c	[cum	2e	-ri-	2cc	.
.	.	.	.	.	.	2B-y	San-	1d	-tu,	4dd	De-
.	.	.	.	.	.	.	.	.	.	4cc	.
.	.	.	.	.	.	2B-y	-cto	.	.	4b-y	.
.	.	.	.	.	.	.	.	.	.	4a	.
=164	=164	=164	=164	=164	=164	=164	=164	=164	=164	=164	=164
0r	.	2r	.	0r	.	2c	Spi-	2r	.	1g	-i,
.	.	2c	in	.	.	2c	-ri-	2e	in	.	.
.	.	2B-y	glo-	.	.	1G	-tu],	2e	glo-	2r	.
.	.	2B-y	-ri-	.	.	.	.	2d	-ri-	2dd	[in
=165	=165	=165	=165	=165	=165	=165	=165	=165	=165	=165	=165
0r	.	2c	-a	0r	.	2r	.	2e	-a	2cc	glo-
.	.	2d	De-	.	.	2d	in	2f	.	2a	-ri-
.	.	1G	-i,	.	.	2d	glo-	4g	De-	2b-y	-a
.	.	.	.	.	.	.	.	4f	.	.	.
.	.	.	.	.	.	2B-y	-ri-	4e	.	[2g	De-
.	.	.	.	.	.	.	.	4d	.	.	.
=166	=166	=166	=166	=166	=166	=166	=166	=166	=166	=166	=166
0r	.	2r	.	0r	.	2c	-a	1c	-i,	2g]	.
.	.	2c	[in	.	.	2A	De-	.	.	2a	.
.	.	2B-y	glo-	.	.	2G	-i	2r	.	1b-y	.
.	.	2G	-ri-	.	.	[2d	Pa-	2g	in	.	.
=167	=167	=167	=167	=167	=167	=167	=167	=167	=167	=167	=167
0r	.	1d	-a	0r	.	4d]	.	2f	glo-	2.a	.
.	.	.	.	.	.	4e	.	.	.	.	.
.	.	.	.	.	.	2f	.	2d	-ri-	.	.
.	.	.	.	.	.	.	.	.	.	4b-y	.
.	.	2.c	De-	.	.	2g	.	2e	-a	4cc	.
.	.	.	.	.	.	.	.	.	.	4dd	.
.	.	.	.	.	.	[2e	.	[2c	De-	[2ee	.
.	.	4B-y	.	.	.	.	.	.	.	.	.
=168	=168	=168	=168	=168	=168	=168	=168	=168	=168	=168	=168
0r	.	2A	.	0r	.	4e]	.	2c]	.	4ee]	.
.	.	.	.	.	.	4f	.	.	.	4dd	.
.	.	2B-y	.	.	.	2g	.	2d	.	1dd	.
.	.	1A	-i]	.	.	1a	.	1e	-i	.	.
.	.	.	.	.	.	.	.	.	.	2cc#i	-i]
=169	=169	=169	=169	=169	=169	=169	=169	=169	=169	=169	=169
0r	.	1B-y	Pa-	1d	Cum	1f	-tris,	2.d	Pa-	2.dd	Pa-
.	.	.	.	.	.	.	.	4e	.	4cc	.
.	.	[1F	.	2d	San-	2r	.	4f	.	1a	-tris,
.	.	.	.	.	.	.	.	4g	.	.	.
.	.	.	.	2c	-cto	[2f	[Pa-	[2a	.	.	.
=170	=170	=170	=170	=170	=170	=170	=170	=170	=170	=170	=170
0r	.	2F]	.	2d	Spi-	4f]	.	4a]	.	0r	.
.	.	.	.	.	.	4e	.	4g	.	.	.
.	.	2G	.	2B-y	-ri-	4d	.	1g	.	.	.
.	.	.	.	.	.	4c	.	.	.	.	.
.	.	1D	-tris,	1A	-tu,	[1d	-tris],	.	.	.	.
.	.	.	.	.	.	.	.	2f#i	.	.	.
=171	=171	=171	=171	=171	=171	=171	=171	=171	=171	=171	=171
1G	Cum	0r	.	2r	.	1d]	.	2.g	.	0r	.
.	.	.	.	2B-y	in	.	.	.	.	.	.
.	.	.	.	.	.	.	.	4f	.	.	.
2G	San-	.	.	2B-y	glo-	1r	.	1d	-tris,	.	.
2F	-cto	.	.	2A	-ri-	.	.	.	.	.	.
=172	=172	=172	=172	=172	=172	=172	=172	=172	=172	=172	=172
2G	Spi-	0r	.	2B-y	-a	0r	.	0r	.	0r	.
2E	-ri-	.	.	2c	De-	.	.	.	.	.	.
1D	-tu,	.	.	4d	-i	.	.	.	.	.	.
.	.	.	.	4c	.	.	.	.	.	.	.
.	.	.	.	4B-y	Pa-	.	.	.	.	.	.
.	.	.	.	4A	.	.	.	.	.	.	.
=173	=173	=173	=173	=173	=173	=173	=173	=173	=173	=173	=173
2r	.	0r	.	1G	-tris,	0r	.	0r	.	0r	.
2E	in	.	.	.	.	.	.	.	.	.	.
2E	glo-	.	.	2r	.	.	.	.	.	.	.
2D	-ri-	.	.	2d	[in	.	.	.	.	.	.
=174	=174	=174	=174	=174	=174	=174	=174	=174	=174	=174	=174
2E	-a	0r	.	2c	glo-	1r	.	0r	.	0r	.
2F	.	.	.	2A	-ri-	.	.	.	.	.	.
4G	De-	.	.	2B-y	-a	2r	.	.	.	.	.
4F	.	.	.	.	.	.	.	.	.	.	.
4E	.	.	.	[2G	De-	2g	in	.	.	.	.
4D	.	.	.	.	.	.	.	.	.	.	.
=175	=175	=175	=175	=175	=175	=175	=175	=175	=175	=175	=175
1C	-i,	2r	.	2G]	.	2e	glo-	0r	.	0r	.
.	.	2c	in	2A	-i	2c	-ri-	.	.	.	.
2r	.	2B-y	glo-	1B-y	Pa-	2.d	-a	.	.	.	.
2G	[in	2G	-ri-	.	.	.	.	.	.	.	.
.	.	.	.	.	.	4e	.	.	.	.	.
=176	=176	=176	=176	=176	=176	=176	=176	=176	=176	=176	=176
2F	glo-	2A	-a	2.A	.	4f	.	0r	.	0r	.
.	.	.	.	.	.	4g	.	.	.	.	.
2D	-ri-	2F	De-	.	.	2.a	De-	.	.	.	.
.	.	.	.	4B-y	.	.	.	.	.	.	.
2E	-a	1G	-i	4c	.	.	.	.	.	.	.
.	.	.	.	4d	.	4g	.	.	.	.	.
[2C	De-	.	.	[2e	.	[2g	.	.	.	.	.
=177	=177	=177	=177	=177	=177	=177	=177	=177	=177	=177	=177
2C]	.	1A	Pa-	4e]	.	2g]	.	0r	.	0r	.
.	.	.	.	4d	.	.	.	.	.	.	.
2D	.	.	.	1d	.	2f#i	-i	.	.	.	.
1E	-i	1G	-tris,	.	.	1g	Pa-	.	.	.	.
.	.	.	.	2c#i	.	.	.	.	.	.	.
=178	=178	=178	=178	=178	=178	=178	=178	=178	=178	=178	=178
2.D	Pa-	1r	.	2.d	-tris,	1f	-tris,	0r	.	2r	.
.	.	.	.	.	.	.	.	.	.	2dd	in
4E	.	.	.	4c	.	.	.	.	.	.	.
4F	.	[1F	[Pa-	1A	.	2r	.	.	.	2cc	glo-
4G	.	.	.	.	.	.	.	.	.	.	.
[2A	.	.	.	.	.	2f	[in	.	.	2cc	-ri-
=179	=179	=179	=179	=179	=179	=179	=179	=179	=179	=179	=179
4A]	.	2F]	.	0r	.	2f	glo-	0r	.	2dd	-a
4G	.	.	.	.	.	.	.	.	.	.	.
1G	.	2G	.	.	.	2d	-ri-	.	.	2b-y	De-
.	.	1D	-tris,	.	.	1d	-a	.	.	1a	-i
2F#i	.	.	.	.	.	.	.	.	.	.	.
=180	=180	=180	=180	=180	=180	=180	=180	=180	=180	=180	=180
2.G	-tris],	0r	.	0r	.	2.d	De-	2r	.	1b-y	Pa-
.	.	.	.	.	.	.	.	2g	[in	.	.
4F	.	.	.	.	.	4e	.	.	.	.	.
1D	.	.	.	.	.	4f	.	2f	glo-	1a	-tris.
.	.	.	.	.	.	4g	.	.	.	.	.
.	.	.	.	.	.	2a	.	2f	-ri-	.	.
=181	=181	=181	=181	=181	=181	=181	=181	=181	=181	=181	=181
0r	.	0r	.	0r	.	2b-y	-i	2g	-a	2dd	A-
.	.	.	.	.	.	4a	.	2e	De-	2cc	.
.	.	.	.	.	.	4g	.	.	.	.	.
.	.	.	.	.	.	2b-y	.	1d	-i	2.dd	.
.	.	.	.	.	.	[2a	Pa-	.	.	.	.
.	.	.	.	.	.	.	.	.	.	4cc	.
=182	=182	=182	=182	=182	=182	=182	=182	=182	=182	=182	=182
0r	.	0r	.	0r	.	4a]	.	1e-X	Pa-	2b-y	.
.	.	.	.	.	.	4g	.	.	.	.	.
.	.	.	.	.	.	1g	.	.	.	2g	.
.	.	.	.	.	.	.	.	1d	.	1a	.
.	.	.	.	.	.	2f	.	.	.	.	.
=183	=183	=183	=183	=183	=183	=183	=183	=183	=183	=183	=183
0r	.	2r	.	0r	.	2e	.	2g	.	2g	.
.	.	2A	in	.	.	4d	.	2f	.	2cc	.
.	.	.	.	.	.	4c	.	.	.	.	.
.	.	2G	glo-	.	.	1d	-tris,	2.g	.	2b-y	.
.	.	2B-y	-ri-	.	.	.	.	.	.	[2dd	.
.	.	.	.	.	.	.	.	4f	.	.	.
=184	=184	=184	=184	=184	=184	=184	=184	=184	=184	=184	=184
0r	.	2c	-a	0r	.	2r	.	2e	.	4dd]	.
.	.	.	.	.	.	.	.	.	.	4cc	.
.	.	2A	.	.	.	1a	in	2c	.	2cc	.
.	.	2F	De-	.	.	.	.	1d	.	2a	.
.	.	2G	-i	.	.	4g	.	.	.	2b-y	.
.	.	.	.	.	.	4f	.	.	.	.	.
=185	=185	=185	=185	=185	=185	=185	=185	=185	=185	=185	=185
0r	.	1.A	Pa-	0r	.	2e	.	2c	.	1.cc	.
.	.	.	.	.	.	1c	glo-	2f	.	.	.
.	.	.	.	.	.	.	.	2e	.	.	.
.	.	2G	.	.	.	2d	-ri-	[2g	.	2b-y	.
=186	=186	=186	=186	=186	=186	=186	=186	=186	=186	=186	=186
0r	.	2A	.	0r	.	2c	-a	4g]	.	2cc	-men,
.	.	.	.	.	.	.	.	4f	.	.	.
.	.	2F	.	.	.	1d	De-	2f	.	2a	.
.	.	1G	.	.	.	.	.	2d	.	1b-y	A-
.	.	.	.	.	.	4c	.	2e	.	.	.
.	.	.	.	.	.	4B-y	.	.	.	.	.
=187	=187	=187	=187	=187	=187	=187	=187	=187	=187	=187	=187
0r	.	1D	-tris].	2r	.	2.d	-i	1.f	.	2.a	.
.	.	.	.	2d	in	.	.	.	.	.	.
.	.	.	.	.	.	4c	.	.	.	4b-y	.
.	.	1r	.	2c	glo-	2A	.	.	.	4cc	.
.	.	.	.	.	.	.	.	.	.	4dd	.
.	.	.	.	2c	-ri-	[2a	Pa-	2e	.	2ee	.
=188	=188	=188	=188	=188	=188	=188	=188	=188	=188	=188	=188
0r	.	0r	.	2d	-a	2a]	.	2f	.	2a	.
.	.	.	.	2B-y	De-	2g	.	2d	.	1dd	.
.	.	.	.	1A	-i	1a	.	1e	.	.	.
.	.	.	.	.	.	.	.	.	.	2cc#i	.
=189	=189	=189	=189	=189	=189	=189	=189	=189	=189	=189	=189
2r	.	2r	.	1B-y	Pa-	2f	.	2.d	-tris].	2dd	.
2G	De-	2B-y	A-	.	.	2g	.	.	.	2g	.
.	.	.	.	.	.	.	.	4e	.	.	.
2F	-i	2c	.	1A	-tris.	1c	-tris].	4f	.	2a	.
.	.	.	.	.	.	.	.	4g	.	.	.
2F	Pa-	2A	.	.	.	.	.	2a	.	2cc	.
=190	=190	=190	=190	=190	=190	=190	=190	=190	=190	=190	=190
2G	.	1G	-men,	2d	A-	0r	.	2d	A-	2b-y	.
2E	.	.	.	2c	.	.	.	1g	.	4a	.
.	.	.	.	.	.	.	.	.	.	4g	.
1D	-tris.	1r	.	2.d	.	.	.	.	.	2b-y	.
.	.	.	.	.	.	.	.	2f	.	[2a	.
.	.	.	.	4c	.	.	.	.	.	.	.
=191	=191	=191	=191	=191	=191	=191	=191	=191	=191	=191	=191
1E-X	A-	1r	.	2B-y	.	0r	.	2g	.	4a]	.
.	.	.	.	.	.	.	.	.	.	4g	.
.	.	.	.	2G	.	.	.	2c	.	1g	.
1D	.	2r	.	1A	.	.	.	1d	.	.	.
.	.	2A	[A-	.	.	.	.	.	.	2f#i	.
=192	=192	=192	=192	=192	=192	=192	=192	=192	=192	=192	=192
[0Gl	-men.	1.B-y	.	[0Gl	-men.	1.d	A-	[0dl	-men.	[0gl	-men.
.	.	4A	.	.	.	[2B-y	.	.	.	.	.
.	.	4G	.	.	.	.	.	.	.	.	.
=193	=193	=193	=193	=193	=193	=193	=193	=193	=193	=193	=193
0G_	.	[0B-yl	-men].	0G_	.	2B-]	.	0d_	.	0g_	.
.	.	.	.	.	.	4A	.	.	.	.	.
.	.	.	.	.	.	4G	.	.	.	.	.
.	.	.	.	.	.	1d	.	.	.	.	.
=194	=194	=194	=194	=194	=194	=194	=194	=194	=194	=194	=194
00G]	.	00B-]	.	00G]	.	00dl	-men.	00d]	.	00g]	.
==	==	==	==	==	==	==	==	==	==	==	==
*-	*-	*-	*-	*-	*-	*-	*-	*-	*-	*-	*-
!!!system-decoration: [*]
!!!RDF**kern: i = editorial accidental
!!!RDF**kern: l = terminal long
!!!ENC: Benjamin Ory
!!!END: 2021/2/3
!!!EED: Benjamin Ory
!!!EEV: 2021/05/21
!!!YEC: Copyright 2021 Benjamin Ory, All Rights Reserved
!!!ONB: Translated from MusicXML on 2021/05/21
